resources/icons/20px/group-item.svg

<svg width="20" height="20" viewBox="0 0 20 20" fill="none" xmlns="http://www.w3.org/2000/svg">
<path d="M15.757 0.703004L19.293 4.238C19.386 4.33088 19.4597 4.44117 19.5101 4.56256C19.5604 4.68396 19.5863 4.81409 19.5863 4.9455C19.5863 5.07692 19.5604 5.20705 19.5101 5.32844C19.4597 5.44984 19.386 5.56013 19.293 5.653L15.757 9.188C15.5695 9.37547 15.3152 9.48079 15.05 9.48079C14.7848 9.48079 14.5305 9.37547 14.343 9.188L10.807 5.653C10.714 5.56013 10.6403 5.44984 10.5899 5.32844C10.5396 5.20705 10.5137 5.07692 10.5137 4.9455C10.5137 4.81409 10.5396 4.68396 10.5899 4.56256C10.6403 4.44117 10.714 4.33088 10.807 4.238L14.343 0.703004C14.5305 0.515533 14.7848 0.410217 15.05 0.410217C15.3152 0.410217 15.5695 0.515533 15.757 0.703004ZM1 1.996C1 1.73079 1.10536 1.47643 1.29289 1.2889C1.48043 1.10136 1.73478 0.996004 2 0.996004H8C8.26522 0.996004 8.51957 1.10136 8.70711 1.2889C8.89464 1.47643 9 1.73079 9 1.996V7.996C9 8.26122 8.89464 8.51557 8.70711 8.70311C8.51957 8.89065 8.26522 8.996 8 8.996H2C1.73478 8.996 1.48043 8.89065 1.29289 8.70311C1.10536 8.51557 1 8.26122 1 7.996V1.996ZM3 6.996H7V2.996H3V6.996ZM2 10.996H8C8.26522 10.996 8.51957 11.1014 8.70711 11.2889C8.89464 11.4764 9 11.7308 9 11.996V17.996C9 18.2612 8.89464 18.5156 8.70711 18.7031C8.51957 18.8906 8.26522 18.996 8 18.996H2C1.73478 18.996 1.48043 18.8906 1.29289 18.7031C1.10536 18.5156 1 18.2612 1 17.996V11.996C1 11.7308 1.10536 11.4764 1.29289 11.2889C1.48043 11.1014 1.73478 10.996 2 10.996ZM3 12.996V16.996H7V12.996H3ZM11 11.996C11 11.7308 11.1054 11.4764 11.2929 11.2889C11.4804 11.1014 11.7348 10.996 12 10.996H18C18.2652 10.996 18.5196 11.1014 18.7071 11.2889C18.8946 11.4764 19 11.7308 19 11.996V17.996C19 18.2612 18.8946 18.5156 18.7071 18.7031C18.5196 18.8906 18.2652 18.996 18 18.996H12C11.7348 18.996 11.4804 18.8906 11.2929 18.7031C11.1054 18.5156 11 18.2612 11 17.996V11.996ZM13 16.996H17V12.996H13V16.996Z" fill="black"/>
</svg>

<svg xmlns="http://www.w3.org/2000/svg" viewBox="0 0 20 20">
  <path d="m15.757.703 3.536 3.535a1 1 0 0 1 0 1.415l-3.536 3.535a1 1 0 0 1-1.414 0l-3.536-3.535a1 1 0 0 1 0-1.415L14.343.703a1 1 0 0 1 1.414 0M1 1.996a1 1 0 0 1 1-1h6a1 1 0 0 1 1 1v6a1 1 0 0 1-1 1H2a1 1 0 0 1-1-1zm2 5h4v-4H3zm-1 4h6a1 1 0 0 1 1 1v6a1 1 0 0 1-1 1H2a1 1 0 0 1-1-1v-6a1 1 0 0 1 1-1m1 2v4h4v-4zm8-1a1 1 0 0 1 1-1h6a1 1 0 0 1 1 1v6a1 1 0 0 1-1 1h-6a1 1 0 0 1-1-1zm2 5h4v-4h-4z"/>
</svg>
